komodo/Komodo-Biru/apps/scalable/gnome-settings-default-applications.svg

<?xml version="1.0" encoding="UTF-8" standalone="no"?>
<!-- Created with Inkscape (http://www.inkscape.org/) -->
<svg id="svg2" xmlns:rdf="http://www.w3.org/1999/02/22-rdf-syntax-ns#" xmlns="http://www.w3.org/2000/svg" height="96" width="96" version="1.1" xmlns:cc="http://creativecommons.org/ns#" xmlns:xlink="http://www.w3.org/1999/xlink" xmlns:dc="http://purl.org/dc/elements/1.1/">
 <defs id="defs4">
  <filter id="filter6279" color-interpolation-filters="sRGB">
   <feGaussianBlur id="feGaussianBlur6281" stdDeviation="0.8"/>
  </filter>
  <linearGradient id="linearGradient10902-1" y2="902.36" gradientUnits="userSpaceOnUse" x2="48" gradientTransform="translate(0 -.0000096172)" y1="1052.4" x1="48">
   <stop id="stop3189-0" style="stop-color:#afafaf" offset="0"/>
   <stop id="stop3191-8" style="stop-color:#d8d8d8" offset="1"/>
  </linearGradient>
  <linearGradient id="linearGradient3790" y2="4.9937" gradientUnits="userSpaceOnUse" y1="15.373" x2="10.541" x1="11.087">
   <stop id="stop3660" style="stop-color:#ff9604" offset="0"/>
   <stop id="stop3662" style="stop-color:#fff580" offset="1"/>
  </linearGradient>
  <linearGradient id="linearGradient3692" y2="18.702" gradientUnits="userSpaceOnUse" y1="76.203" x2="48.714" x1="48.714">
   <stop id="stop3688-8" style="stop-color:#dcdcdc" offset="0"/>
   <stop id="stop3690-9" style="stop-color:#f0f0f0" offset="1"/>
  </linearGradient>
  <linearGradient id="linearGradient3111-6" y2="74.185" gradientUnits="userSpaceOnUse" y1="32.81" x2="52.821" x1="52.821">
   <stop id="stop3703" style="stop-color:#fff" offset="0"/>
   <stop id="stop3705" style="stop-color:#fff;stop-opacity:0" offset="1"/>
  </linearGradient>
 </defs>
 <metadata id="metadata7">
  <rdf:RDF>
   <cc:Work rdf:about="">
    <dc:format>image/svg+xml</dc:format>
    <dc:type rdf:resource="http://purl.org/dc/dcmitype/StillImage"/>
    <dc:title/>
   </cc:Work>
  </rdf:RDF>
 </metadata>
 <g id="layer1" transform="translate(0 -956.36)">
  <g id="g9727" transform="translate(2.861e-8 -.0000095886)">
   <rect id="rect9283" style="filter:url(#filter6279)" rx="5" ry="5" height="80" width="80" y="964.36" x="8"/>
   <rect id="rect9285" style="fill:url(#linearGradient10902-1)" rx="5" ry="5" height="80" width="80" y="964.36" x="8"/>
   <g id="g26594-5" transform="translate(-182.19 -40.406)">
    <g id="g3077" transform="matrix(.91666 0 0 .91666 186.19 1001.3)">
     <path id="path3748" style="fill:url(#linearGradient3790)" transform="matrix(5.5945 .29482 -.29472 5.5956 -8.9771 -12.186)" d="m5.3053 9.174 3.5961-0.8181 1.5476-3.3474 1.8893 3.1673 3.6619 0.43772-2.4284 2.7756 0.7153 3.618-3.3902-1.4519-3.2198 1.7983 0.3332-3.6729z"/>
     <path id="path3684" style="opacity:.1;fill:#a40" d="m48 23.728-7.999 15.193-16.934 2.935 11.973 12.311-2.467 17.012 15.427-7.584 15.401 7.584-2.441-17.012 11.973-12.311-16.908-2.935-8.025-15.193zm0.02598 4.0516 6.3631 12.129a1.8459 1.8456 1.5484 0 0 1.2467 0.96096l13.583 2.3115-9.5577 9.6876a1.8459 1.8456 1.5484 0 0 -0.49347 1.4285l1.896 13.66-12.207-6.025a1.8459 1.8456 1.5484 0 0 -1.6103 0.05194l-12.259 5.921 1.87-13.453a1.8459 1.8456 1.5484 0 0 -0.49347 -1.4804l-9.5317-9.8434 13.531-2.4933a1.8459 1.8456 1.5484 0 0 1.3505 -0.93499l6.3112-11.921z"/>
     <path id="path3682" style="opacity:.2;fill:#a40" d="m48 22.299-8.481 16.109-17.953 3.111 12.694 13.052-2.616 18.036 16.356-8.04 16.329 8.04-2.589-18.036 12.694-13.052-17.925-3.111-8.509-16.109zm0.02754 4.2956 6.7463 12.859a1.9571 1.9567 1.5484 0 0 1.3217 1.0188l14.401 2.4507-10.133 10.271a1.9571 1.9567 1.5484 0 0 -0.52318 1.5145l2.0101 14.484-12.942-6.3883a1.9571 1.9567 1.5484 0 0 -1.7072 0.05507l-12.997 6.2782 1.9826-14.264a1.9571 1.9567 1.5484 0 0 -0.524 -1.571l-10.106-10.436 14.346-2.643a1.9571 1.9567 1.5484 0 0 1.4319 -0.99129l6.6912-12.639z"/>
     <path id="path3680" style="opacity:.4;fill:#a40" d="m48 20.513-9.083 17.252-19.228 3.333 13.595 13.978-2.801 19.317 17.517-8.611 17.488 8.611-2.772-19.317 13.595-13.978-19.198-3.333-9.113-17.252zm0.02949 4.6005 7.2252 13.772a2.096 2.0956 1.5484 0 0 1.4156 1.0912l15.424 2.6247-10.853 11a2.096 2.0956 1.5484 0 0 -0.56032 1.622l2.1528 15.512-13.861-6.8418a2.096 2.0956 1.5484 0 0 -1.8284 0.05898l-13.92 6.724 2.123-15.276a2.096 2.0956 1.5484 0 0 -0.56 -1.681l-10.823-11.177 15.365-2.831a2.096 2.0956 1.5484 0 0 1.5335 -1.0617l7.1662-13.536z"/>
     <path id="path3677" style="fill:url(#linearGradient3692)" d="m48 18.906-9.625 18.282-20.375 3.531 14.406 14.812-2.968 20.469 18.562-9.125 18.531 9.125-2.937-20.469 14.406-14.812-20.344-3.531-9.656-18.282zm0.03125 4.875 7.6562 14.594a2.2211 2.2206 1.5484 0 0 1.5 1.1562l16.344 2.7812-11.5 11.656a2.2211 2.2206 1.5484 0 0 -0.593 1.72l2.2812 16.438-14.688-7.25a2.2211 2.2206 1.5484 0 0 -1.9375 0.0625l-14.75 7.125 2.25-16.188a2.2211 2.2206 1.5484 0 0 -0.594 -1.781l-11.469-11.844 16.281-3a2.2211 2.2206 1.5484 0 0 1.625 -1.125l7.5938-14.344z"/>
     <path id="path3694" style="fill:url(#linearGradient3111-6)" d="m48 18.906-9.625 18.282-20.375 3.531 14.406 14.812-2.968 20.469 18.562-9.125 18.531 9.125-2.937-20.469 14.406-14.812-20.344-3.531-9.656-18.282zm0.03125 1.7188 8.9062 16.969a0.72745 0.72731 1.5484 0 0 0.1875 0.15625 0.72745 0.72731 1.5484 0 0 0.15625 0.1875 0.72745 0.72731 1.5484 0 0 0.1875 0.03125 0.72745 0.72731 1.5484 0 0 0.15625 0l18.938 3.2812-13.5 13.656a0.72745 0.72731 1.5484 0 0 -0.1875 0.15625 0.72745 0.72731 1.5484 0 0 -0.03125 0.1875 0.72745 0.72731 1.5484 0 0 0 0.1875 0.72745 0.72731 1.5484 0 0 0 0.15625l2.657 19.094-17.062-8.438a0.72745 0.72731 1.5484 0 0 -0.1875 -0.03125 0.72745 0.72731 1.5484 0 0 -0.1875 0 0.72745 0.72731 1.5484 0 0 -0.15625 0 0.72745 0.72731 1.5484 0 0 -0.1875 -0.03125l-17.25 8.4062 2.5625-19a0.72745 0.72731 1.5484 0 0 0 -0.15625 0.72745 0.72731 1.5484 0 0 0.031 -0.188 0.72745 0.72731 1.5484 0 0 -0.187 -0.188l-13.281-13.844 18.938-3.375a0.72745 0.72731 1.5484 0 0 0.15625 0 0.72745 0.72731 1.5484 0 0 0.187 -0.155 0.72745 0.72731 1.5484 0 0 0.187 -0.188l8.9688-16.875z"/>
    </g>
   </g>
  </g>
 </g>
</svg>

<?xml version="1.0" encoding="UTF-8" standalone="no"?>
<!-- Created with Inkscape (http://www.inkscape.org/) -->

<svg
   xmlns:dc="http://purl.org/dc/elements/1.1/"
   xmlns:cc="http://creativecommons.org/ns#"
   xmlns:rdf="http://www.w3.org/1999/02/22-rdf-syntax-ns#"
   xmlns:svg="http://www.w3.org/2000/svg"
   xmlns="http://www.w3.org/2000/svg"
   xmlns:xlink="http://www.w3.org/1999/xlink"
   xmlns:sodipodi="http://sodipodi.sourceforge.net/DTD/sodipodi-0.dtd"
   xmlns:inkscape="http://www.inkscape.org/namespaces/inkscape"
   width="96"
   height="96"
   id="svg2"
   version="1.1"
   inkscape:version="0.48.1 r9760"
   sodipodi:docname="gnome-settings-default-applications.svg">
  <defs
     id="defs4">
    <filter
       color-interpolation-filters="sRGB"
       inkscape:collect="always"
       id="filter6279">
      <feGaussianBlur
         inkscape:collect="always"
         stdDeviation="0.8"
         id="feGaussianBlur6281" />
    </filter>
    <linearGradient
       inkscape:collect="always"
       xlink:href="#linearGradient3617-11"
       id="linearGradient10902-1"
       gradientUnits="userSpaceOnUse"
       gradientTransform="translate(0,-9.6171873e-6)"
       x1="48"
       y1="1052.3622"
       x2="48"
       y2="902.36218" />
    <linearGradient
       id="linearGradient3617-11"
       y2="5.9877"
       gradientUnits="userSpaceOnUse"
       x2="48"
       y1="90"
       x1="48">
      <stop
         id="stop3189-0"
         style="stop-color:#afafaf"
         offset="0" />
      <stop
         id="stop3191-8"
         style="stop-color:#d8d8d8"
         offset="1" />
    </linearGradient>
    <linearGradient
       id="linearGradient3790"
       y2="4.9937"
       gradientUnits="userSpaceOnUse"
       x2="10.541"
       y1="15.373"
       x1="11.087">
      <stop
         id="stop3660"
         style="stop-color:#ff9604"
         offset="0" />
      <stop
         id="stop3662"
         style="stop-color:#fff580"
         offset="1" />
    </linearGradient>
    <linearGradient
       id="linearGradient3692"
       y2="18.702"
       gradientUnits="userSpaceOnUse"
       x2="48.714001"
       y1="76.203003"
       x1="48.714001">
      <stop
         id="stop3688-8"
         style="stop-color:#dcdcdc"
         offset="0" />
      <stop
         id="stop3690-9"
         style="stop-color:#f0f0f0"
         offset="1" />
    </linearGradient>
    <linearGradient
       y2="74.184998"
       x2="52.820999"
       y1="32.810001"
       x1="52.820999"
       gradientUnits="userSpaceOnUse"
       id="linearGradient3111-6"
       xlink:href="#linearGradient3707"
       inkscape:collect="always" />
    <linearGradient
       id="linearGradient3707"
       y2="74.184998"
       gradientUnits="userSpaceOnUse"
       x2="52.820999"
       y1="32.810001"
       x1="52.820999">
      <stop
         id="stop3703"
         style="stop-color:#fff"
         offset="0" />
      <stop
         id="stop3705"
         style="stop-color:#fff;stop-opacity:0"
         offset="1" />
    </linearGradient>
  </defs>
  <sodipodi:namedview
     id="base"
     pagecolor="#ffffff"
     bordercolor="#666666"
     borderopacity="1.0"
     inkscape:pageopacity="0.0"
     inkscape:pageshadow="2"
     inkscape:zoom="3.959798"
     inkscape:cx="28.389459"
     inkscape:cy="57.490015"
     inkscape:document-units="px"
     inkscape:current-layer="layer1"
     showgrid="false"
     inkscape:window-width="1280"
     inkscape:window-height="725"
     inkscape:window-x="0"
     inkscape:window-y="25"
     inkscape:window-maximized="1" />
  <metadata
     id="metadata7">
    <rdf:RDF>
      <cc:Work
         rdf:about="">
        <dc:format>image/svg+xml</dc:format>
        <dc:type
           rdf:resource="http://purl.org/dc/dcmitype/StillImage" />
        <dc:title></dc:title>
      </cc:Work>
    </rdf:RDF>
  </metadata>
  <g
     inkscape:label="Layer 1"
     inkscape:groupmode="layer"
     id="layer1"
     transform="translate(0,-956.36217)">
    <g
       transform="translate(2.861023e-8,-9.5885773e-6)"
       id="g9727">
      <g
         transform="translate(-182.1875,-40.40625)"
         id="g26594" />
      <rect
         y="964.36218"
         x="8"
         height="80"
         width="80"
         id="rect9283"
         style="fill:#000000;fill-opacity:1;stroke:none;filter:url(#filter6279)"
         rx="5"
         ry="5" />
      <rect
         ry="5"
         rx="5"
         style="fill:url(#linearGradient10902-1);fill-opacity:1;stroke:none"
         id="rect9285"
         width="80"
         height="80"
         x="8"
         y="964.36218" />
      <g
         transform="translate(-182.1875,-40.40625)"
         id="g26594-5">
        <g
           id="g3077"
           transform="matrix(0.91666116,0,0,0.91666116,186.18793,1001.3022)">
          <path
             id="path3748"
             style="fill:url(#linearGradient3790)"
             d="m 5.3053,9.174 3.5961,-0.8181 1.5476,-3.3474 1.8893,3.1673 3.6619,0.43772 -2.4284,2.7756 0.7153,3.618 -3.3902,-1.4519 -3.2198,1.7983 0.3332,-3.6729 z"
             transform="matrix(5.5945,0.29482,-0.29472,5.5956,-8.9771,-12.186)"
             inkscape:connector-curvature="0" />
          <path
             id="path3684"
             style="opacity:0.1;fill:#aa4400"
             d="M 48,23.728 40.001,38.921 23.067,41.856 35.04,54.167 32.573,71.179 48,63.595 63.401,71.179 60.96,54.167 72.933,41.856 56.025,38.921 48,23.728 z m 0.02598,4.0516 6.3631,12.129 a 1.8459,1.8456 1.5484 0 0 1.2467,0.96096 l 13.583,2.3115 -9.5577,9.6876 a 1.8459,1.8456 1.5484 0 0 -0.49347,1.4285 l 1.896,13.66 -12.207,-6.025 a 1.8459,1.8456 1.5484 0 0 -1.6103,0.05194 l -12.259,5.921 1.87,-13.453 a 1.8459,1.8456 1.5484 0 0 -0.49347,-1.4804 l -9.5317,-9.8434 13.531,-2.4933 a 1.8459,1.8456 1.5484 0 0 1.3505,-0.93499 l 6.3112,-11.921 z"
             inkscape:connector-curvature="0" />
          <path
             id="path3682"
             style="opacity:0.2;fill:#aa4400"
             d="M 48,22.299 39.519,38.408 21.566,41.519 34.26,54.571 31.644,72.607 48,64.567 64.329,72.607 61.74,54.571 74.434,41.519 56.509,38.408 48,22.299 z m 0.02754,4.2956 6.7463,12.859 a 1.9571,1.9567 1.5484 0 0 1.3217,1.0188 l 14.401,2.4507 -10.133,10.271 a 1.9571,1.9567 1.5484 0 0 -0.52318,1.5145 l 2.0101,14.484 -12.942,-6.3883 a 1.9571,1.9567 1.5484 0 0 -1.7072,0.05507 l -12.997,6.2782 1.9826,-14.264 a 1.9571,1.9567 1.5484 0 0 -0.524,-1.571 l -10.106,-10.436 14.346,-2.643 a 1.9571,1.9567 1.5484 0 0 1.4319,-0.99129 l 6.6912,-12.639 z"
             inkscape:connector-curvature="0" />
          <path
             id="path3680"
             style="opacity:0.4;fill:#aa4400"
             d="M 48,20.513 38.917,37.765 19.689,41.098 33.284,55.076 30.483,74.393 48,65.782 65.488,74.393 62.716,55.076 76.311,41.098 57.113,37.765 48,20.513 z m 0.02949,4.6005 7.2252,13.772 a 2.096,2.0956 1.5484 0 0 1.4156,1.0912 l 15.424,2.6247 -10.853,11 a 2.096,2.0956 1.5484 0 0 -0.56032,1.622 l 2.1528,15.512 -13.861,-6.8418 a 2.096,2.0956 1.5484 0 0 -1.8284,0.05898 l -13.92,6.724 2.123,-15.276 a 2.096,2.0956 1.5484 0 0 -0.56,-1.681 l -10.823,-11.177 15.365,-2.831 a 2.096,2.0956 1.5484 0 0 1.5335,-1.0617 l 7.1662,-13.536 z"
             inkscape:connector-curvature="0" />
          <path
             id="path3677"
             style="fill:url(#linearGradient3692)"
             d="M 48,18.906 38.375,37.188 18,40.719 32.406,55.531 29.438,76 48,66.875 66.531,76 63.594,55.531 78,40.719 57.656,37.188 48,18.906 z m 0.03125,4.875 7.6562,14.594 a 2.2211,2.2206 1.5484 0 0 1.5,1.1562 l 16.344,2.7812 -11.5,11.656 a 2.2211,2.2206 1.5484 0 0 -0.593,1.72 l 2.2812,16.438 -14.688,-7.25 a 2.2211,2.2206 1.5484 0 0 -1.9375,0.0625 l -14.75,7.125 2.25,-16.188 a 2.2211,2.2206 1.5484 0 0 -0.594,-1.781 l -11.469,-11.844 16.281,-3 a 2.2211,2.2206 1.5484 0 0 1.625,-1.125 l 7.5938,-14.344 z"
             inkscape:connector-curvature="0" />
          <path
             id="path3694"
             style="fill:url(#linearGradient3111-6)"
             d="M 48,18.906 38.375,37.188 18,40.719 32.406,55.531 29.438,76 48,66.875 66.531,76 63.594,55.531 78,40.719 57.656,37.188 48,18.906 z m 0.03125,1.7188 8.9062,16.969 a 0.72745,0.72731 1.5484 0 0 0.1875,0.15625 0.72745,0.72731 1.5484 0 0 0.15625,0.1875 0.72745,0.72731 1.5484 0 0 0.1875,0.03125 0.72745,0.72731 1.5484 0 0 0.15625,0 l 18.938,3.2812 -13.5,13.656 a 0.72745,0.72731 1.5484 0 0 -0.1875,0.15625 0.72745,0.72731 1.5484 0 0 -0.03125,0.1875 0.72745,0.72731 1.5484 0 0 0,0.1875 0.72745,0.72731 1.5484 0 0 0,0.15625 l 2.657,19.094 -17.062,-8.438 a 0.72745,0.72731 1.5484 0 0 -0.1875,-0.03125 0.72745,0.72731 1.5484 0 0 -0.1875,0 0.72745,0.72731 1.5484 0 0 -0.15625,0 0.72745,0.72731 1.5484 0 0 -0.1875,-0.03125 l -17.25,8.4062 2.5625,-19 a 0.72745,0.72731 1.5484 0 0 0,-0.15625 0.72745,0.72731 1.5484 0 0 0.031,-0.188 0.72745,0.72731 1.5484 0 0 -0.187,-0.188 l -13.281,-13.844 18.938,-3.375 a 0.72745,0.72731 1.5484 0 0 0.15625,0 0.72745,0.72731 1.5484 0 0 0.187,-0.155 0.72745,0.72731 1.5484 0 0 0.187,-0.188 l 8.9688,-16.875 z"
             inkscape:connector-curvature="0" />
        </g>
      </g>
    </g>
  </g>
</svg>
